X: 1475
T: Neş`eyâb-ı Lûtfun Olsun
C: Musullu Hâfız Osman Efendi
O: Turkey
F: http://compmusic.upf.edu/node/140
N: huzzam--sarki--agiraksak--neseyab-i_lutfun--musullu_hafiz_osman_efendi
N: makam= huzzam
N: form= sarki
N: usul= agiraksak = 9/4
M: 9/4
L: 1/16
K: C _1/4B _3/4e ^3/4f 
Q: 1/4=69
%%MIDI tuningsystem comma53
c'3/2b/^ab c'2d'2 b2c'b =a2_ba g2ag f2gf e2fe d2ef edc2  | 
w:  ARANAĞME  | 
d3/2c/Bc d2e2 fga_b agfe d3c dccB B4 g3^a _1/4b4  | 
w:   | 
c'3/2b/^ab c'2d'2 b2c'b =a2_ba g2ag f2gf e2fe d2ef edc2  | 
w:  ARANAĞME  | 
d3/2c/Bc d2e2 fga_b agfe d3c dccB B8 z4  | 
w:   | 
z8 z2B4g2 g2{a}gf f2{g}fe d3e f2g2 a2gf  | \
w:  Neş e yâb_ *  *  *  *  *  *  *  ı   | 
g2fe f2ed c2{f}ed e2f2 d3c dccB B4 ^ABcB B4  | 
w:  *  *  *  *  *  *  *  *  lût *  *  fun_ ol *  *  *  *  *  sun  SAZ  | 
g3/2f/=eg f6ef e2fg f2g6 z2fg a2gf g2f_3/4e  | 
w:  bu  *  *  *  *  *  *  *  ser_ *  i  *  şû  | 
f2ed e2d4a2 g2f2 gfed e2fg feed d4 cdef  | 
w:  *  *  *  *  *  rî *  *  *  *  *  *  *  de *  miz   *  *  *  *  SAZ  | 
d8 z2a2 g2_b2 a2g2 f2e2 d3e f2g2 a2gf  | \
w:  *  Aç  *  e fen *  *  *  dim   | 
fga_b agfe d2ed e2g2 gf2e feed d2cB c2d2 c2B2  | 
w:  *  *  *  *  *  *  *  *  *  sî *  *  ne  i  *  *  *  *  *  *  bil  | 
B2d4cB3B4cd c/B/^ABc d2e2 fgab c'2_ba ag2f  | 
w:  *  lû *  *  *  ru  *  gör *  *  *  *  *  *  sün   | 
feed g3/2f/e3/2d/ c2de f2ed d2cB c2d_1/4e dcB^A B4 cd_3/4ef  | 
w:  *  *  *  *  *  *  *  *  *  dî *  *  *  *  *  *  *  *  de *  miz   *  *  *  *  SAZ  | 
d8 z2a2 g2_b2 a2g2 f2e2 d3e f2g2 a2gf  | \
w:  *  Aç  *  e fen *  *  *  dim   | 
fga_b agfe d2ed e2g2 gf2e feed d2cB c2d2 c2B2  | 
w:  *  *  *  *  *  *  *  *  *  sî *  *  ne  i  *  *  *  *  *  *  bil  | 
B2d4cB3B4cd c/B/^ABc d2e2 fgab c'2_ba ag2f  | 
w:  *  lû *  *  *  ru  *  gör *  *  *  *  *  *  sün   | 
feed g3/2f/e3/2d/ c2de f2ed d2cB c2d_1/4e dcB^A B4 g3/2f/=ef  | 
w:  *  *  *  *  *  *  *  *  *  dî *  *  *  *  *  *  *  *  de *  miz   *  *  *  *  SAZ  | 
g8 z2gf =e2f2 g4 a3g f4 g4 a2_bc'  | \
w:  *  Böy *  *  le  is *  *  tir  | 
a2g2 g2f4c'4_ba a3g fgag f4 g8  | 
w:  *  *  *  *  hâm  e *  der  *  *  *  *  *  her   | 
g3/2f/=eg f4 z2ef e2fg f2g6 z2fg a2gf g2f_3/4e  | 
w:  SAZ *  *  *  *  dem  *  *  dil_ *  i  *  gam   | 
f2ed e2d4a2 g2f2 gfed e2fg feed d4 cdef  | 
w:  *  *  *  *  *  dî *  *  *  *  *  *  *  de *  miz   *  *  *  *  SAZ  | 
d8 z2a2 g2_b2 a2g2 f2e2 d3e f2g2 a2gf  | \
w:  *  Aç  *  e fen *  *  *  dim   | 
fga_b agfe d2ed e2g2 gf2e feed d2cB c2d2 c2B2  | 
w:  *  *  *  *  *  *  *  *  *  sî *  *  ne  i  *  *  *  *  *  *  bil  | 
B2d4cB3B4cd c/B/^ABc d2e2 fgab c'2_ba ag2f  | 
w:  *  lû *  *  *  ru  *  gör *  *  *  *  *  *  sün   | 
feed g3/2f/e3/2d/ c2de f2ed d2cB c2d_1/4e dcB^A B4 cd_3/4ef  | 
w:  *  *  *  *  *  *  *  *  *  dî *  *  *  *  *  *  *  *  de *  miz   *  *  *  *  SAZ  | 
d8 z2a2 g2_b2 a2g2 f2e2 d3e f2g2 a2gf  | \
w:  *  Aç  *  e fen *  *  *  dim   | 
fga_b agfe d2ed e2g2 gf2e feed d2cB c2d2 c2B2  | 
w:  *  *  *  *  *  *  *  *  *  sî *  *  ne  i  *  *  *  *  *  *  bil  | 
B2d4cB3B4cd c/B/^ABc d2e2 fgab c'2_ba ag2f  | 
w:  *  lû *  *  *  ru  *  gör *  *  *  *  *  *  sün   | 
feed g3/2f/e3/2d/ c2de f2ed d2cB c2d_1/4e dcB^A B4 |
w:  *  *  *  *  *  *  *  *  *  dî *  *  *  *  *  *  *  *  de *  miz    | 


